X:1
T:O'er Bogie
M:C|
L:1/8
R:Reel
B:David Young – Drummond Castle/Duke of Perth Manuscript (1734, No. 45)
Z:AK/Fiddler’s Companion
K:Amin
A|cdcA BGGA|cc d/c/B/A/ GAcG|Addc dega|ge f/e/d/c/ TA2G:|
|:A|c2 (e/f/g) cg e/f/g/e/|cc d/c/B/A/ GAcB|A/c/d dc dega|ge f/e/d/c/ TA2 G:|]

